svgs/thin/envelope.svg

<svg xmlns="http://www.w3.org/2000/svg" viewBox="0 0 512 512"><!--! Font Awesome Pro 6.4.2 by @fontawesome - https://fontawesome.com License - https://fontawesome.com/license (Commercial License) Copyright 2023 Fonticons, Inc. --><path d="M64 80c-26.5 0-48 21.5-48 48v28.2L220.8 321.4c20.5 16.5 49.8 16.5 70.3 0L496 156.2V128c0-26.5-21.5-48-48-48H64zM16 176.7V384c0 26.5 21.5 48 48 48H448c26.5 0 48-21.5 48-48V176.7L301.2 333.8c-26.4 21.3-64 21.3-90.4 0L16 176.7zM0 128C0 92.7 28.7 64 64 64H448c35.3 0 64 28.7 64 64V384c0 35.3-28.7 64-64 64H64c-35.3 0-64-28.7-64-64V128z"/></svg>

<svg xmlns="http://www.w3.org/2000/svg" viewBox="0 0 512 512"><!--! Font Awesome Pro 6.1.1 by @fontawesome - https://fontawesome.com License - https://fontawesome.com/license (Commercial License) Copyright 2022 Fonticons, Inc. --><path d="M0 128C0 92.65 28.65 64 64 64H448C483.3 64 512 92.65 512 128V384C512 419.3 483.3 448 448 448H64C28.65 448 0 419.3 0 384V128zM16 128V156.2L220.8 321.4C241.4 337.9 270.6 337.9 291.2 321.4L496 156.2V128C496 101.5 474.5 80 448 80H63.1C37.49 80 15.1 101.5 15.1 128H16zM16 176.7V384C16 410.5 37.49 432 64 432H448C474.5 432 496 410.5 496 384V176.7L301.2 333.8C274.8 355.1 237.2 355.1 210.8 333.8L16 176.7z"/></svg>
